optimized/24/outline/age.svg

<svg viewBox="0 0 24 24" fill="none" xmlns="http://www.w3.org/2000/svg">
  <g clip-path="url(#clip0_2208_12334)">
    <path d="M19.75 2.75C19.75 2.33579 19.4142 2 19 2C18.5858 2 18.25 2.33579 18.25 2.75V4.24999H16.7877C16.3735 4.24999 16.0377 4.58578 16.0377 4.99999C16.0377 5.41421 16.3735 5.74999 16.7877 5.74999H18.25V7.24999C18.25 7.66421 18.5858 7.99999 19 7.99999C19.4142 7.99999 19.75 7.66421 19.75 7.24999V5.74999L21.25 5.75C21.6642 5.75 22 5.41421 22 5C22 4.58579 21.6642 4.25 21.25 4.25L19.75 4.24999V2.75Z" fill="#333333"/>
    <path d="M12 2.74999C12 2.33578 11.663 1.99707 11.25 2.0277C6.07743 2.41124 2 6.72945 2 12C2 17.5228 6.47715 22 12 22C17.2705 22 21.5888 17.9226 21.9723 12.75C22.0029 12.3369 21.6642 12 21.25 12C20.8358 12 20.5035 12.3369 20.4674 12.7496C20.0879 17.0929 16.4418 20.5 12 20.5C7.30558 20.5 3.5 16.6944 3.5 12C3.5 7.55815 6.90708 3.91208 11.2504 3.53259C11.6631 3.49654 12 3.16421 12 2.74999Z" fill="#333333"/>
    <path d="M15 7.91885C14.1622 7.04567 13.0298 6.49999 11.75 6.49999C9.04604 6.49999 7 8.93598 7 11.75C7 14.564 9.04604 17 11.75 17C13.112 17 14.3071 16.3819 15.1579 15.4088C15.2769 15.7935 15.4624 16.1158 15.7123 16.3728C16.1814 16.8553 16.7727 17 17.25 17C17.6642 17 18 16.6642 18 16.25C18 15.8358 17.6642 15.5 17.25 15.5C17.0606 15.5 16.902 15.4447 16.7877 15.3272C16.6742 15.2104 16.5 14.9247 16.5 14.25V7.74999C16.5 7.33578 16.1642 6.99999 15.75 6.99999C15.3358 6.99999 15 7.33578 15 7.74999V7.91885ZM11.75 7.99999C13.4643 7.99999 15 9.59344 15 11.75C15 13.9065 13.4643 15.5 11.75 15.5C10.0357 15.5 8.5 13.9065 8.5 11.75C8.5 9.59344 10.0357 7.99999 11.75 7.99999Z" fill="#333333"/>
  </g>
  <defs>
    <clipPath id="clip0_2208_12334">
      <rect width="24" height="24" fill="white"/>
    </clipPath>
  </defs>
</svg>

<svg xmlns="http://www.w3.org/2000/svg" width="24" height="24" fill="none">
  <g fill="#333" clip-path="url(#a)">
    <path d="M19.75 2.75a.75.75 0 0 0-1.5 0v1.5h-1.462a.75.75 0 0 0 0 1.5h1.462v1.5a.75.75 0 0 0 1.5 0v-1.5h1.5a.75.75 0 0 0 0-1.5h-1.5v-1.5ZM12 2.75c0-.414-.337-.753-.75-.722C6.077 2.41 2 6.729 2 12c0 5.523 4.477 10 10 10 5.27 0 9.589-4.077 9.972-9.25.03-.413-.308-.75-.722-.75s-.747.337-.783.75a8.5 8.5 0 1 1-9.217-9.217c.413-.036.75-.369.75-.783Z"/>
    <path d="M15 7.919c-.838-.873-1.97-1.419-3.25-1.419C9.046 6.5 7 8.936 7 11.75S9.046 17 11.75 17c1.362 0 2.557-.618 3.408-1.591.119.384.304.707.554.964.47.482 1.06.627 1.538.627a.75.75 0 0 0 0-1.5.62.62 0 0 1-.462-.173c-.114-.117-.288-.402-.288-1.077v-6.5a.75.75 0 0 0-1.5 0v.169ZM11.75 8C13.464 8 15 9.593 15 11.75c0 2.156-1.536 3.75-3.25 3.75S8.5 13.906 8.5 11.75C8.5 9.593 10.036 8 11.75 8Z"/>
  </g>
  <defs>
    <clipPath id="a">
      <path fill="#fff" d="M0 0h24v24H0z"/>
    </clipPath>
  </defs>
</svg>
